images_sukapura_svg/cmd/32/cut.svg

<?xml version="1.0" encoding="UTF-8" standalone="no"?>
<svg
   xmlns:dc="http://purl.org/dc/elements/1.1/"
   xmlns:cc="http://creativecommons.org/ns#"
   xmlns:rdf="http://www.w3.org/1999/02/22-rdf-syntax-ns#"
   xmlns:svg="http://www.w3.org/2000/svg"
   xmlns="http://www.w3.org/2000/svg"
   xmlns:sodipodi="http://sodipodi.sourceforge.net/DTD/sodipodi-0.dtd"
   xmlns:inkscape="http://www.inkscape.org/namespaces/inkscape"
   viewBox="0 0 32 32"
   version="1.1"
   id="svg8"
   sodipodi:docname="cut.svg"
   inkscape:version="0.92.3 (2405546, 2018-03-11)">
  <metadata
     id="metadata14">
    <rdf:RDF>
      <cc:Work
         rdf:about="">
        <dc:format>image/svg+xml</dc:format>
        <dc:type
           rdf:resource="http://purl.org/dc/dcmitype/StillImage" />
        <dc:title></dc:title>
      </cc:Work>
    </rdf:RDF>
  </metadata>
  <defs
     id="defs12" />
  <sodipodi:namedview
     pagecolor="#ffffff"
     bordercolor="#666666"
     borderopacity="1"
     objecttolerance="10"
     gridtolerance="10"
     guidetolerance="10"
     inkscape:pageopacity="0"
     inkscape:pageshadow="2"
     inkscape:window-width="1366"
     inkscape:window-height="692"
     id="namedview10"
     showgrid="true"
     inkscape:zoom="10.429825"
     inkscape:cx="20.4207"
     inkscape:cy="7.0573147"
     inkscape:window-x="0"
     inkscape:window-y="0"
     inkscape:window-maximized="1"
     inkscape:current-layer="svg8">
    <inkscape:grid
       type="xygrid"
       id="grid821" />
  </sodipodi:namedview>
  <path
     d="m9.3359375 3c-.9649995 1.625-1.4689053 1.625-.5039063 3.25l5.9179688 9.978516-3.169922 5.28125a5 5 0 0 1 1.25 2.205078l1.6875-2.841797c1.304414-.01625 1.467702-1.260195 2.228516-1.277344l2.43164 4.099609a5 5 0 0 1 1.257813-2.195312l-3.166016-5.271484 5.917969-9.978516c.965-1.625.463047-1.625-.501953-3.25l-6.675781 11.126953zm6.6640625 13a1 1 0 0 1 1 1 1 1 0 0 1 -1 1 1 1 0 0 1 -1-1 1 1 0 0 1 1-1z"
     fill="#808080"
     id="path2"
     style="stroke:none;fill:#69696e;fill-opacity:1" />
  <path
     style="opacity:0.98999999;fill:#0a84ff;fill-opacity:1"
     d="M 8 21 C 5.790861 21 4 22.790861 4 25 C 4 27.209139 5.790861 29 8 29 C 10.209139 29 12 27.209139 12 25 C 12 22.790861 10.209139 21 8 21 z M 8 23 A 2 2 0 0 1 10 25 A 2 2 0 0 1 8 27 A 2 2 0 0 1 6 25 A 2 2 0 0 1 8 23 z "
     id="path4" />
  <path
     style="opacity:0.98999999;fill:#0a84ff;fill-opacity:1"
     d="M 24 21 C 21.790861 21 20 22.790861 20 25 C 20 27.209139 21.790861 29 24 29 C 26.209139 29 28 27.209139 28 25 C 28 22.790861 26.209139 21 24 21 z M 24 23 A 2 2 0 0 1 26 25 A 2 2 0 0 1 24 27 A 2 2 0 0 1 22 25 A 2 2 0 0 1 24 23 z "
     id="path6" />
</svg>

<svg viewBox="0 0 32 32" xmlns="http://www.w3.org/2000/svg"><path d="m9.3359375 3c-.9649995 1.625-1.4689053 1.625-.5039063 3.25l5.9179688 9.978516-3.169922 5.28125a5 5 0 0 1 1.25 2.205078l1.6875-2.841797c1.304414-.01625 1.467702-1.260195 2.228516-1.277344l2.43164 4.099609a5 5 0 0 1 1.257813-2.195312l-3.166016-5.271484 5.917969-9.978516c.965-1.625.463047-1.625-.501953-3.25l-6.675781 11.126953zm6.6640625 13a1 1 0 0 1 1 1 1 1 0 0 1 -1 1 1 1 0 0 1 -1-1 1 1 0 0 1 1-1z" fill="#69696e"/><g fill="#0a84ff"><path d="m8 21c-2.209139 0-4 1.790861-4 4s1.790861 4 4 4 4-1.790861 4-4-1.790861-4-4-4zm0 2a2 2 0 0 1 2 2 2 2 0 0 1 -2 2 2 2 0 0 1 -2-2 2 2 0 0 1 2-2z" opacity=".99"/><path d="m24 21c-2.209139 0-4 1.790861-4 4s1.790861 4 4 4 4-1.790861 4-4-1.790861-4-4-4zm0 2a2 2 0 0 1 2 2 2 2 0 0 1 -2 2 2 2 0 0 1 -2-2 2 2 0 0 1 2-2z" opacity=".99"/></g></svg>
